src/assets/duotone/Microphone.svg

<svg width="24" height="24" viewBox="0 0 24 24"  xmlns="http://www.w3.org/2000/svg">
<path opacity="0.4" d="M12.0001 21.93C6.9601 21.93 2.8501 17.83 2.8501 12.78V10.9C2.8501 10.51 3.1701 10.2 3.5501 10.2C3.9301 10.2 4.2501 10.52 4.2501 10.9V12.78C4.2501 17.05 7.7201 20.52 11.9901 20.52C16.2601 20.52 19.7301 17.05 19.7301 12.78V10.9C19.7301 10.51 20.0501 10.2 20.4301 10.2C20.8101 10.2 21.1301 10.52 21.1301 10.9V12.78C21.1501 17.83 17.0401 21.93 12.0001 21.93Z" />
<path d="M11.9999 2C8.6399 2 5.8999 4.74 5.8999 8.1V12.79C5.8999 16.15 8.6399 18.89 11.9999 18.89C15.3599 18.89 18.0999 16.15 18.0999 12.79V8.1C18.0999 4.74 15.3599 2 11.9999 2ZM14.1799 10.59C14.1099 10.86 13.8599 11.04 13.5899 11.04C13.5399 11.04 13.4799 11.03 13.4299 11.02C12.4099 10.74 11.3299 10.74 10.3099 11.02C9.9799 11.11 9.6499 10.92 9.5599 10.59C9.4699 10.27 9.6599 9.93 9.9899 9.84C11.2199 9.5 12.5199 9.5 13.7499 9.84C14.0799 9.93 14.2699 10.26 14.1799 10.59ZM15.0299 7.82C14.9399 8.07 14.7099 8.22 14.4599 8.22C14.3899 8.22 14.3199 8.21 14.2499 8.18C12.7199 7.62 11.0399 7.62 9.5099 8.18C9.1899 8.3 8.8399 8.14 8.7199 7.82C8.6099 7.51 8.7699 7.16 9.0899 7.04C10.8899 6.39 12.8699 6.39 14.6599 7.04C14.9799 7.16 15.1399 7.51 15.0299 7.82Z" />
</svg>

<?xml version="1.0" encoding="UTF-8"?>
<svg width="24" height="24" viewBox="0 0 24 24" xmlns="http://www.w3.org/2000/svg">
 <path d="m12 21.93c-5.04 0-9.15-4.1-9.15-9.15v-1.88c0-0.39 0.32-0.7 0.7-0.7s0.7 0.32 0.7 0.7v1.88c0 4.27 3.47 7.74 7.74 7.74s7.74-3.47 7.74-7.74v-1.88c0-0.39 0.32-0.7 0.7-0.7s0.7 0.32 0.7 0.7v1.88c0.02 5.05-4.09 9.15-9.13 9.15z" opacity=".4"/>
 <path d="m12 2c-3.36 0-6.1 2.74-6.1 6.1v4.69c0 3.36 2.74 6.1 6.1 6.1s6.1-2.74 6.1-6.1v-4.69c0-3.36-2.74-6.1-6.1-6.1zm2.18 8.59c-0.07 0.27-0.32 0.45-0.59 0.45-0.05 0-0.11-0.01-0.16-0.02-1.02-0.28-2.1-0.28-3.12 0-0.33 0.09-0.66-0.1-0.75-0.43-0.09-0.32 0.1-0.66 0.43-0.75 1.23-0.34 2.53-0.34 3.76 0 0.33 0.09 0.52 0.42 0.43 0.75zm0.85-2.77c-0.09 0.25-0.32 0.4-0.57 0.4-0.07 0-0.14-0.01-0.21-0.04-1.53-0.56-3.21-0.56-4.74 0-0.32 0.12-0.67-0.04-0.79-0.36-0.11-0.31 0.05-0.66 0.37-0.78 1.8-0.65 3.78-0.65 5.57 0 0.32 0.12 0.48 0.47 0.37 0.78z"/>
</svg>
